X: 17290
T: Heroes Of Longhope, The
R: jig
M: 6/8
K: Dmajor
F2G|Aa2 f2e|dD2 d2c|Bd2 d2B|B(A2 A2)f/g/|
a2a b2a|fd2 A2F|Ee2 e2d|c3 a2g|
fa2 f2e|dD2 d2c|Bd2 d2B|B(A2 A2)F/G/|
A2d b2a|fA2 f2e|d3 d3|d2 z:|
|:c2d|eA2 c2e|gb2 a2g|f2e f2g|(a3 a2)z|
^g2f g2a|b3 e'2d'|c'2d' c'2b|(a3 a2)=g|
fa2 f2e|dD2 d2c|Bd2 d2B|B(A2 A2)F/G/|
A2d b2a|fA2 f2e|d3 d3|d2 z:|

